packages/icons/src/SVG/protection-solid.svg

<svg width="12" height="12" viewBox="0 0 12 12" fill="none" xmlns="http://www.w3.org/2000/svg">
<path fill-rule="evenodd" clip-rule="evenodd" d="M6 12C1.18752 9.81818 0.499983 4.63636 0.5 1.90909C0.640234 1.88591 0.779476 1.86372 0.918314 1.84159C2.41306 1.60333 3.86117 1.37251 6 0C8.13883 1.37251 9.58694 1.60333 11.0817 1.84159C11.2205 1.86372 11.3598 1.88591 11.5 1.90909C11.5 4.63636 10.8125 9.81818 6 12ZM5.5 10.6022V1.45463C3.92186 2.29951 2.67951 2.56518 1.52309 2.75699C1.65866 5.23621 2.4532 8.70747 5.5 10.6022Z" fill="#4C505B"/>
</svg>

<!-- Generated by IcoMoon.io -->
<svg version="1.1" xmlns="http://www.w3.org/2000/svg" width="12" height="12" viewBox="0 0 12 12">
<title>protection-solid</title>
<path d="M6 12c-4.812-2.182-5.5-7.364-5.5-10.091 0.14-0.023 0.279-0.045 0.418-0.067 1.495-0.238 2.943-0.469 5.082-1.842 2.139 1.373 3.587 1.603 5.082 1.842 0.139 0.022 0.278 0.044 0.418 0.067 0 2.727-0.688 7.909-5.5 10.091zM5.5 10.602v-9.148c-1.578 0.845-2.82 1.111-3.977 1.302 0.136 2.479 0.93 5.95 3.977 7.845z"></path>
</svg>
